client/svg/copy.svg

<svg xmlns="http://www.w3.org/2000/svg" width="32" height="32" viewBox="-2 -2 36 36"><path d="M26 8h-6v-2l-6-6h-14v24h12v8h20v-18l-6-6zM26 10.828l3.172 3.172h-3.172v-3.172zM14 2.828l3.172 3.172h-3.172v-3.172zM2 2h10v6h6v14h-16v-20zM30 30h-16v-6h6v-14h4v6h6v14z"/></svg>

<svg xmlns="http://www.w3.org/2000/svg" width="32" height="32" viewBox="-2 -2 36 36"><path d="M26 8h-6V6l-6-6H0v24h12v8h20V14l-6-6zm0 2.828L29.172 14H26v-3.172zm-12-8L17.172 6H14V2.828zM2 2h10v6h6v14H2V2zm28 28H14v-6h6V10h4v6h6v14z"/></svg>
